svgs/light/rv.svg

<svg xmlns="http://www.w3.org/2000/svg" viewBox="0 0 640 512"><!--! Font Awesome Pro 6.6.0 by @fontawesome - https://fontawesome.com License - https://fontawesome.com/license (Commercial License) Copyright 2024 Fonticons, Inc. --><path d="M224 24c0-13.3 10.7-24 24-24L360 0c13.3 0 24 10.7 24 24l0 8 112 0c61.9 0 112 50.1 112 112l0 8c0 22.1-17.9 40-40 40l-18.4 0L628 254.7c7.6 6.1 12 15.3 12 25L640 384c0 17.7-14.3 32-32 32l-33.6 0c1 5.2 1.6 10.5 1.6 16c0 44.2-35.8 80-80 80s-80-35.8-80-80c0-5.5 .6-10.8 1.6-16L400 416l-145.6 0c1 5.2 1.6 10.5 1.6 16c0 44.2-35.8 80-80 80s-80-35.8-80-80c0-7.7 1.1-15.2 3.1-22.2L18.7 329.4C6.7 317.4 0 301.1 0 284.1L0 96C0 60.7 28.7 32 64 32l160 0 0-8zM64 64C46.3 64 32 78.3 32 96l0 188.1c0 8.5 3.4 16.6 9.4 22.6l73.6 73.6C129.6 363 151.5 352 176 352c26.2 0 49.4 12.6 64 32l144 0 0-208c0-8.8 7.2-16 16-16l168 0c4.4 0 8-3.6 8-8l0-8c0-44.2-35.8-80-80-80L384 64l-32 0 0-32-96 0 0 32-32 0L64 64zM176 384a48 48 0 1 0 0 96 48 48 0 1 0 0-96zm320 0a48 48 0 1 0 0 96 48 48 0 1 0 0-96zm-64 0c14.6-19.4 37.8-32 64-32s49.4 12.6 64 32l48 0 0-96-192 0 0 96 16 0zM416 192l0 64 162.4 0-80-64L416 192zM128 224l160 0 0-64-160 0 0 64zM96 152c0-13.3 10.7-24 24-24l176 0c13.3 0 24 10.7 24 24l0 80c0 13.3-10.7 24-24 24l-176 0c-13.3 0-24-10.7-24-24l0-80z"/></svg>

<svg xmlns="http://www.w3.org/2000/svg" viewBox="0 0 640 512"><!--! Font Awesome Pro 6.4.2 by @fontawesome - https://fontawesome.com License - https://fontawesome.com/license (Commercial License) Copyright 2023 Fonticons, Inc. --><path d="M224 24c0-13.3 10.7-24 24-24H360c13.3 0 24 10.7 24 24v8H496c61.9 0 112 50.1 112 112v8c0 22.1-17.9 40-40 40H549.6L628 254.7c7.6 6.1 12 15.3 12 25V384c0 17.7-14.3 32-32 32H574.4c1 5.2 1.6 10.5 1.6 16c0 44.2-35.8 80-80 80s-80-35.8-80-80c0-5.5 .6-10.8 1.6-16H400 254.4c1 5.2 1.6 10.5 1.6 16c0 44.2-35.8 80-80 80s-80-35.8-80-80c0-7.7 1.1-15.2 3.1-22.2L18.7 329.4C6.7 317.4 0 301.1 0 284.1V96C0 60.7 28.7 32 64 32H224V24zM64 64C46.3 64 32 78.3 32 96V284.1c0 8.5 3.4 16.6 9.4 22.6l73.6 73.6C129.6 363 151.5 352 176 352c26.2 0 49.4 12.6 64 32H384V176c0-8.8 7.2-16 16-16H568c4.4 0 8-3.6 8-8v-8c0-44.2-35.8-80-80-80H384 352V32H256V64H224 64zM176 384a48 48 0 1 0 0 96 48 48 0 1 0 0-96zm320 0a48 48 0 1 0 0 96 48 48 0 1 0 0-96zm-64 0c14.6-19.4 37.8-32 64-32s49.4 12.6 64 32h48V288H416v96h16zM416 192v64H578.4l-80-64H416zM128 224H288V160H128v64zM96 152c0-13.3 10.7-24 24-24H296c13.3 0 24 10.7 24 24v80c0 13.3-10.7 24-24 24H120c-13.3 0-24-10.7-24-24V152z"/></svg>
